!!!SOCIAL_FUNCTION: hand game and ghost dance songs
!!!PDT:	1929
!!!LING_GROUP: Caddoan
!!!LANG: Non-Tone
!!!REG: Oklahoma
!!!COM: Anon.
!!!OTL: Ghost Dance Song (a)
!!!ODT: <1920//
!!!MPN: Horse Chief [Spotted Horse Chief]
!!!MLC: Pawnee, Oklahoma, United States of America
!! Song was recorded either 1919 or 1920.
!!!AGN: monody
!!!SOCIAL_FUNCTION2: Ghost dance
!!!AMT: irregular
!!!RWG: Transcribed pitches, durations, and meters are only approximate.
!! Drum not recorded
**kern
*ICvox
*Imale
*clefF4
*k[f#]
*M2/4
*MM96
=1-
8B
8B
8B
8A
=2
8B
8B
8B
8A
=3
8A
8A
8A
8F#
=4
8A
8A
8A
8F#
=5
8E
8E
8E
8r
=6
8A
8A
8A
8F#
=7
8A
8A
8A
8F#
=8
8E
8E
8E
8r
=9
8E
8E
8E
8E
=10
8E
8E
8E
8r
=11
8B
8B
8B
8A
=12
8B
8B
8B
8B
*M3/4
=13
4A
8B
8B
8B
8r
*M2/4
=14
8A
8A
8A
8F#
*M3/4
=15
8A
8A
8A
8F#
8E
8r
*M2/4
=16
8A
8A
8A
8F#
=17
8A
8A
8A
8F#
=18
8E
8E
8E
8r
=19
8E
8E
8E
8E
=20
8E
8E
8E
8r
==
*-
!!!HAO:    The four songs next [this, and the following three] were also said
!!!HAO: to be Ghost dance songs, used in the dances incident to a hand game.
!!!HTX: [no free translation]
!!!CNT: Pawnee
!!!TXO: Pawnee
!!!OCY: United States
!!!OCL: Frances Densmore
!!!YOR: Frances Densmore, "Pawnee Music"
!!!YOR: Bulletin 93, page 81, No. 53
!!!PPR: Smithsonian Institution, Bureau of American Ethnology
!!!PPR: Government Printing Office
!!!PDT: 1926
!!!PPP: Washington, DC, United States of America
!!!YEC: Electronic Copyright 2000 David Huron
!!!YER: September 2000
!!!YEN: United States of America
!!!ENC: David Huron
!!!RDT: September 4, 2000
!!!EEV: Release 1.0
!!!AIN: vox
